X:6270
T:the Tinker's Daughter
M:4/4
O:Ireland
R:Reel
Z:Richard Robinson 
%%TUNEURL: http://www.leeds.ac.uk/music/Info/RRTuneBk/gettune/00000a61.html
%%ID:00000a61
K:D
B|\
A2 FA DA FA|f2 fd ef dB|\
A2 FA DA FA|Bd dA BA FB|\
A2 FA DA FA|f2 fd ef de|\
fa (3aaa bf af|de de fd d::\
e|\
fa (3aaa bf af|de fd e2 de|\
f2 df e2 de|f2 df ed BA|\
fa (3aaa bf af|de fd e2 de|\
f2df e3e|dB AF D3:|\
